X:6813
T:The Gay Leopard
O:England
M:4/4
L:1/8
R:Schottische
N:Schottische-ified first cousin of ceilidh tune Galoped
K:G
dc|B3cA3B|GAGE D2GF|EDEF G2AB|c2B2A2dc|B3cA3B|GAGE D2GF|EDEF GFGc|B2G2G2
